X: 35109
T: Rolling Waves, The
R: jig
M: 6/8
K: Dmajor
|:FEF D3|D2d cAG|FEF D3|A2F GFE|
FEF D3|D2d cAG|F3 GFG|A2F GFE:|
|:D2d cAd|cAd cAG|F2d cAG|F3 GFE|
D2d cAd|g/f/ed cAG|F3 GFG|A2F GFE|
D2d cAd|cAG EFG|F2d cAG|AF/G/A GFE|
D2d cAd|g/f/ed cAG|FEF GFG|AF/G/A GFE||

